Obsidian/actions/16s/blurfx.svg

<svg height="16" viewBox="0 0 16 16" width="16" xmlns="http://www.w3.org/2000/svg"><path d="m11 1-.574219 1.6132812-1.5468748-.734375.734375 1.546875-1.6132812.5742188 1.6132812.5742188-.734375 1.546875 1.5468748-.734375.574219 1.6132812.574219-1.6132812 1.546875.734375-.734375-1.546875 1.613281-.5742188-1.613281-.5742188.734375-1.546875-1.546875.734375zm-5 1c-.20703.66364-.4867725 1.3130187-.7890625 1.9492188-1.5405 3.1502-3.9510937 5.3047687-4.1835937 7.2929692-.006.0297-.0221438.062196-.0273438.091796l.0195312.00586c-.0049999.0684-.0195312.136888-.0195312.205078 0 2.4602 2.2386 4.455078 5 4.455078s5-1.994878 5-4.455078c0-.0682-.014531-.136718-.019531-.205078l.019531-.00586c-.005-.0295-.021044-.062096-.027344-.091796-.23255-1.9882005-2.6430935-4.1447224-4.1835935-7.2949224-.30228-.63621-.5820425-1.2835656-.7890625-1.9472656z" fill="#bebebe"/></svg>

<svg xmlns="http://www.w3.org/2000/svg" width="16" height="16" viewBox="0 0 16 16">
 <defs>
  <style id="current-color-scheme" type="text/css">
   .ColorScheme-Text { color:#bebebe; } .ColorScheme-Highlight { color:#4285f4; }
  </style>
 </defs>
 <path style="fill:currentColor" class="ColorScheme-Text" d="M 11 1 L 10.425781 2.6132812 L 8.8789062 1.8789062 L 9.6132812 3.4257812 L 8 4 L 9.6132812 4.5742188 L 8.8789062 6.1210938 L 10.425781 5.3867188 L 11 7 L 11.574219 5.3867188 L 13.121094 6.1210938 L 12.386719 4.5742188 L 14 4 L 12.386719 3.4257812 L 13.121094 1.8789062 L 11.574219 2.6132812 L 11 1 z M 6 2 C 5.79297 2.66364 5.5132275 3.3130187 5.2109375 3.9492188 C 3.6704375 7.0994188 1.2598438 9.2539875 1.0273438 11.242188 C 1.0213438 11.271888 1.0052 11.304384 1 11.333984 L 1.0195312 11.339844 C 1.0145313 11.408244 1 11.476732 1 11.544922 C 1 14.005122 3.2386 16 6 16 C 8.7614 16 11 14.005122 11 11.544922 C 11 11.476722 10.985469 11.408204 10.980469 11.339844 L 11 11.333984 C 10.995 11.304484 10.978956 11.271888 10.972656 11.242188 C 10.740106 9.2539875 8.3295625 7.0974656 6.7890625 3.9472656 C 6.4867825 3.3110556 6.20702 2.6637 6 2 z"/>
</svg>
